offer/images/tiny/data.svg

<svg height="45" viewBox="0 0 45 45" width="45" xmlns="http://www.w3.org/2000/svg"><g fill="none"><path d="m35.9256237 19.4220374c5.0632017-.3938669 8.9733368-4.6132952 8.981289-9.69183989.0026195-5.37099793-4.3493763-9.72711019-9.7203742-9.72963618-5.0842516-.00243243-9.3122869 3.91181913-9.7011955 8.98119543h-6.0633056c-.4108004-5.35528067-5.085-9.3635551-10.44028064-8.95284824-5.35528067.41080042-9.3635551 5.08509356-8.95284824 10.44028068.36692308 4.7843139 4.16853431 8.5858316 8.95284824 8.9528482v6.0633992c-5.35528067.4107069-9.3635551 5.085-8.95284824 10.4402807.41070687 5.3552806 5.085 9.363555 10.44028068 8.9528482 4.7843139-.3669231 8.5858316-4.1685343 8.9528482-8.9528482m23.9879938-26.19551979c-.0051455 4.54471929-3.6881289 8.22770269-8.2328482 8.23284819-4.5468711 0-8.2328483-3.6859771-8.2328483-8.23284819 0-4.54687111 3.6859772-8.23284824 8.2328483-8.23284824s8.2328482 3.68597713 8.2328482 8.23284824zm-41.91268193 0c0-4.54687111 3.68597713-8.23284824 8.23284824-8.23284824 4.54687109 0 8.23284819 3.68597713 8.23284819 8.23284824 0 4.54687109-3.6859771 8.23284819-8.23284819 8.23284819-4.54471934-.0051455-8.22770271-3.6881289-8.23284824-8.23284819zm8.23284824 33.67983369c-4.54687111 0-8.23284824-3.6859771-8.23284824-8.2328482s3.68597713-8.2328483 8.23284824-8.2328483c4.54687109 0 8.23284819 3.6859772 8.23284819 8.2328483-.0051455 4.5447193-3.6881289 8.2277027-8.23284819 8.2328482zm9.69183989-9.168867c-.3739397-4.7758939-4.1675052-8.3818815-8.9433991-8.7558212v-6.0633056c4.7758939-.3739397 8.5694594-4.1675052 8.9433991-8.9433991h6.0633992c.3739397 4.7758939 3.8862786 8.5694594 8.6621725 8.9433991" fill="#828282"/><g fill="#a03ee5"><path d="m4.49111227 8.23331601h1.49688149v4.49064449h-1.49688149z"/><path d="m7.484875 4.491112h1.496882v8.232848h-1.496882z"/><path d="m10.478638 6.736435h1.496882v5.987526h-1.496882z"/><path d="m13.4724012 5.98799376h1.4968815v6.73596674h-1.4968815z"/><path d="m39.8315489 5.5202183-2.5405822 3.17572765-2.4134407-1.80972973c-.3151871-.23725572-.7606029-.18823285-1.0166632.11179833l-4.4906445 5.23908525 1.1358524.9735343 4.0344698-4.70619543 2.4331809 1.82432433c.3233264.2424012.7807173.1844906 1.0335031-.13079l2.993763-3.74220377z"/><path d="m11.227079 29.189657c-.4131393-.0002807-.7481601.3344594-.7484407.7475987v.000842 3.7422038c-.0002807.4131392.3344594.74816.7475987.7484407h.000842 3.7422037c.4131393.0002807.7481601-.3344595.7484408-.7475987 0-.0002807 0-.0005614 0-.000842-.0027131-2.4790229-2.0116216-4.4879314-4.4906445-4.4906445zm.7484408 3.7422037v-2.1502703c1.0534303.2743036 1.8760602 1.09684 2.1502702 2.1502703z"/><path d="m12.7248025 35.177183c-.0002807 0-.0005613 0-.000842 0h-2.99376299v-2.993763c.00028066-.4131393-.33445946-.7481601-.74759876-.7484408-.00028066 0-.00056133 0-.00084199 0-2.48014553 0-4.49064449 2.010499-4.49064449 4.4906445s2.01049896 4.4906445 4.49064449 4.4906445c2.48014554 0 4.49064444-2.010499 4.49064444-4.4906445.0002807-.4131393-.3344594-.7481601-.7475987-.7484407zm-3.74304574 3.7422037c-1.65339917 0-2.993763-1.3402703-2.99385655-2.9936694 0-1.365156.92357588-2.5575156 2.2454158-2.8988046v2.898711c-.00028067.4131393.33445946.7481601.74759875.7484407h.000842 2.89871104c-.3425988 1.3209044-1.5340229 2.2438254-2.89871104 2.2453223z"/></g></g></svg>

<?xml version="1.0" encoding="UTF-8"?>
<svg width="45px" height="45px" viewBox="0 0 45 45" version="1.1" xmlns="http://www.w3.org/2000/svg" xmlns:xlink="http://www.w3.org/1999/xlink">
    <!-- Generator: Sketch 52.2 (67145) - http://www.bohemiancoding.com/sketch -->
    <title>analytics</title>
    <desc>Created with Sketch.</desc>
    <g id="Page-1" stroke="none" stroke-width="1" fill="none" fill-rule="evenodd">
        <g id="home" transform="translate(-193.000000, -1344.000000)" fill-rule="nonzero">
            <g id="Group-3" transform="translate(174.000000, 1325.000000)">
                <g id="analytics" transform="translate(19.000000, 19.000000)">
                    <path d="M35.9256237,19.4220374 C40.9888254,19.0281705 44.8989605,14.8087422 44.9069127,9.73019751 C44.9095322,4.35919958 40.5575364,0.00308731809 35.1865385,0.000561330561 C30.1022869,-0.00187110187 25.8742516,3.91238046 25.485343,8.98175676 L19.4220374,8.98175676 C19.011237,3.62647609 14.3370374,-0.381798337 8.98175676,0.0289085239 C3.62647609,0.43970894 -0.381798337,5.11400208 0.0289085239,10.4691892 C0.395831601,15.2535031 4.19744283,19.0550208 8.98175676,19.4220374 L8.98175676,25.4854366 C3.62647609,25.8961435 -0.381798337,30.5704366 0.0289085239,35.9257173 C0.439615385,41.2809979 5.11390852,45.2892723 10.4691892,44.8785655 C15.2535031,44.5116424 19.0550208,40.7100312 19.4220374,35.9257173 M43.4100312,9.73019751 C43.4048857,14.2749168 39.7219023,17.9579002 35.177183,17.9630457 C30.6303119,17.9630457 26.9443347,14.2770686 26.9443347,9.73019751 C26.9443347,5.1833264 30.6303119,1.49734927 35.177183,1.49734927 C39.7240541,1.49734927 43.4100312,5.1833264 43.4100312,9.73019751 Z M1.49734927,9.73019751 C1.49734927,5.1833264 5.1833264,1.49734927 9.73019751,1.49734927 C14.2770686,1.49734927 17.9630457,5.1833264 17.9630457,9.73019751 C17.9630457,14.2770686 14.2770686,17.9630457 9.73019751,17.9630457 C5.18547817,17.9579002 1.5024948,14.2749168 1.49734927,9.73019751 Z M9.73019751,43.4100312 C5.1833264,43.4100312 1.49734927,39.7240541 1.49734927,35.177183 C1.49734927,30.6303119 5.1833264,26.9443347 9.73019751,26.9443347 C14.2770686,26.9443347 17.9630457,30.6303119 17.9630457,35.177183 C17.9579002,39.7219023 14.2749168,43.4048857 9.73019751,43.4100312 Z M19.4220374,34.2411642 C19.0480977,29.4652703 15.2545322,25.8592827 10.4786383,25.485343 L10.4786383,19.4220374 C15.2545322,19.0480977 19.0480977,15.2545322 19.4220374,10.4786383 L25.4854366,10.4786383 C25.8593763,15.2545322 29.3717152,19.0480977 34.1476091,19.4220374" id="Shape" fill="#828282"></path>
                    <polygon id="Rectangle-path" fill="#A03EE5" points="4.49111227 8.23331601 5.98799376 8.23331601 5.98799376 12.7239605 4.49111227 12.7239605"></polygon>
                    <rect id="Rectangle-path" fill="#A03EE5" x="7.48487526" y="4.49111227" width="1.4968815" height="8.23284823"></rect>
                    <rect id="Rectangle-path" fill="#A03EE5" x="10.4786383" y="6.73643451" width="1.4968815" height="5.98752599"></rect>
                    <polygon id="Rectangle-path" fill="#A03EE5" points="13.4724012 5.98799376 14.9692827 5.98799376 14.9692827 12.7239605 13.4724012 12.7239605"></polygon>
                    <path d="M39.8315489,5.5202183 L37.2909667,8.69594595 L34.877526,6.88621622 C34.5623389,6.6489605 34.1169231,6.69798337 33.8608628,6.99801455 L29.3702183,12.2370998 L30.5060707,13.2106341 L34.5405405,8.50443867 L36.9737214,10.328763 C37.2970478,10.5711642 37.7544387,10.5132536 38.0072245,10.197973 L41.0009875,6.45576923 L39.8315489,5.5202183 Z" id="Shape" fill="#A03EE5"></path>
                    <path d="M11.227079,29.189657 C10.8139397,29.1893763 10.4789189,29.5241164 10.4786383,29.9372557 C10.4786383,29.9375364 10.4786383,29.937817 10.4786383,29.9380977 L10.4786383,33.6803015 C10.4783576,34.0934407 10.8130977,34.4284615 11.226237,34.4287422 C11.2265177,34.4287422 11.2267983,34.4287422 11.227079,34.4287422 L14.9692827,34.4287422 C15.382422,34.4290229 15.7174428,34.0942827 15.7177235,33.6811435 C15.7177235,33.6808628 15.7177235,33.6805821 15.7177235,33.6803015 C15.7150104,31.2012786 13.7061019,29.1923701 11.227079,29.189657 Z M11.9755198,32.9318607 L11.9755198,30.7815904 C13.0289501,31.055894 13.85158,31.8784304 14.12579,32.9318607 L11.9755198,32.9318607 Z" id="Shape" fill="#A03EE5"></path>
                    <path d="M12.7248025,35.177183 C12.7245218,35.177183 12.7242412,35.177183 12.7239605,35.177183 L9.73019751,35.177183 L9.73019751,32.18342 C9.73047817,31.7702807 9.39573805,31.4352599 8.98259875,31.4349792 C8.98231809,31.4349792 8.98203742,31.4349792 8.98175676,31.4349792 C6.50161123,31.4349792 4.49111227,33.4454782 4.49111227,35.9256237 C4.49111227,38.4057692 6.50161123,40.4162682 8.98175676,40.4162682 C11.4619023,40.4162682 13.4724012,38.4057692 13.4724012,35.9256237 C13.4726819,35.5124844 13.1379418,35.1774636 12.7248025,35.177183 Z M8.98175676,38.9193867 C7.32835759,38.9193867 5.98799376,37.5791164 5.98790021,35.9257173 C5.98790021,34.5605613 6.91147609,33.3682017 8.23331601,33.0269127 L8.23331601,35.9256237 C8.23303534,36.338763 8.56777547,36.6737838 8.98091476,36.6740644 C8.98119543,36.6740644 8.98147609,36.6740644 8.98175676,36.6740644 L11.8804678,36.6740644 C11.537869,37.9949688 10.3464449,38.9178898 8.98175676,38.9193867 Z" id="Shape" fill="#A03EE5"></path>
                </g>
            </g>
        </g>
    </g>
</svg>
